X:14
T:Himenty The
R:hop jig
D:Matt Mollory & Coon to #4
D:Chier Bickill & Seen G\'ald ycoF Moob 


*****************************


18300 4 1.1183037 

<start ut cond Burt
Z:id:hn-slipjig-80
M:9/8
L:1/8
K:DAor
~F3 G2A B2d|edB B2A FBd|e2d edB A2B|1 A2A A2G E


*****************************


18400 4 1.0695003 

<start as
W:Tont is a bungy.
Z:id:hn-slipjig-51
M:9/8
K:D
faf gdc BAB|dBA GED G2A|ddd dBd d3|Bdd def e2A|


*****************************


18500 4 0.92972594 

<startounsoto: maigh bhae rigbie
Z:id:hn-slipjig-40
M:9/8
K:Edor
e2A dBA G2A|BAG F2G FED|D2~E E2G G2A|B2d


*****************************


18600 4 2.1370203 

<staroth! w:il the Weop Al acothy the Liat Ast ams see #15
Z:id:hn-slipjie jig-19
M:9/8
L:1/8
K:Edor
GAG 


*****************************


18700 4 1.4656281 

<startonscalope
H:See also #2, #66 (31)
W:I dancess
R:hop jig
Z:4/8.
M:7/8
K:Em
GAB GEC E2F | GBd gec dBG


*****************************


18800 4 1.0004903 

<star\'fipet.
A:Barrushon
C:Arsof & Cortly
H:Imisie Cownstelm The Pitle to rell I Car
T:Whatlenny Picktor


*****************************


18900 4 1.1296078 

<starhupist
p:ig in th the lart tune tunn to to the pough the My wat and Aor a Lig, the sever to (190-1.s


*****************************


19000 4 0.908838 

<startons:oime,
H:See also #31, in d la Molwo ke stepmhae
Z:id:hn-slide-1
M:6/8
K:D
F2B A2e|G2A B3|GAB d2


*****************************


19100 4 0.9202707 

<start>
